X:1
T:The Fermoy Lasses
M:2/2
R:Reel
K:Emin
|: GEEE BEEF | GFGA B2BA | GEEE BEEB | AFDF AcBA |
   GEEE BEEF | GFGA B2BA | G2GF GBdB | AFDF AcBA :|
|: G2BG dGBG | GGBd efg2 | G2BG dGBG | AFDF AcBA |
   G2BG dGBG | GGBd efg2 | gage dedB | AFDF AcBA :|
